dist/assets/uwm-icons/icon_transit_selected.svg

<?xml version="1.0" encoding="UTF-8"?>
<svg width="32px" height="32px" viewBox="0 0 32 32" version="1.1" xmlns="http://www.w3.org/2000/svg" xmlns:xlink="http://www.w3.org/1999/xlink">
    <!-- Generator: Sketch 48.2 (47327) - http://www.bohemiancoding.com/sketch -->
    <title>icon_transit_selected</title>
    <desc>Created with Sketch.</desc>
    <defs></defs>
    <g id="Icons" stroke="none" stroke-width="1" fill="none" fill-rule="evenodd">
        <g id="icon_transit_selected">
            <rect id="Rectangle" x="4" y="4" width="24" height="24"></rect>
            <path d="M22.8796134,18.1825873 C22.8796134,18.3625596 22.7217025,18.5200738 22.5412769,18.5200738 L21.1429012,18.5200738 C21.1429012,17.8226427 20.6013159,17.25996 19.9024365,17.25996 C19.2029403,17.25996 18.6391488,17.8226427 18.6391488,18.5200738 L16.2479696,18.5200738 L16.2479696,10.1952007 L22.5412769,10.1952007 C22.7217025,10.1952007 22.8796134,10.3524073 22.8796134,10.5551454 L22.8796134,18.1825873 Z M20.8042562,21.7826488 C20.375861,21.7826488 20.0600391,21.4451623 20.0600391,21.0399938 C20.0600391,20.6351331 20.375861,20.2976465 20.8042562,20.2976465 C21.2104452,20.2976465 21.5262671,20.6351331 21.5262671,21.0399938 C21.5262671,21.4451623 21.2104452,21.7826488 20.8042562,21.7826488 Z M19,18.5200738 C19,18.0250731 19.4058805,17.6426704 19.9024365,17.6426704 C20.3983757,17.6426704 20.78205,18.0250731 20.78205,18.5200738 L19,18.5200738 Z M15.7745451,18.5200738 L9.48123779,18.5200738 C9.2779891,18.5200738 9.12007813,18.3625596 9.12007813,18.1825873 L9.12007813,10.5551454 C9.12007813,10.3524073 9.2779891,10.1952007 9.48123779,10.1952007 L15.7745451,10.1952007 L15.7745451,18.5200738 Z M11.2176416,21.7826488 C10.8117611,21.7826488 10.4734245,21.4451623 10.4734245,21.0399938 C10.4734245,20.6351331 10.8117611,20.2976465 11.2176416,20.2976465 C11.6238306,20.2976465 11.9624756,20.6351331 11.9624756,21.0399938 C11.9624756,21.4451623 11.6238306,21.7826488 11.2176416,21.7826488 Z M12.9321476,8.01245962 C12.9321476,7.92262729 13,7.85494539 13.0900586,7.85494539 L18.9099414,7.85494539 C19,7.85494539 19.090367,7.92262729 19.090367,8.01245962 L19.090367,9.09260114 C19.090367,9.18243347 19,9.27257345 18.9099414,9.27257345 L13.0900586,9.27257345 C13,9.27257345 12.9321476,9.18243347 12.9321476,9.09260114 L12.9321476,8.01245962 Z M24.2782975,10.4874635 L24.2782975,7.67497308 C24.2782975,7.29257037 23.9849902,7 23.6016243,7 L8.39837566,7 C8.03752442,7 7.72170248,7.29257037 7.72170248,7.67497308 L7.72170248,10.4874635 C7.31551352,10.5102292 7,10.82495 7,11.2301184 L7,13.0301492 C7,13.43501 7.31551352,13.7724965 7.72170248,13.7949546 L7.72170248,22.3001077 C7.72170248,22.6600523 8.03752442,22.9750808 8.39837566,22.9750808 L9.61632569,22.9750808 L9.61632569,24.0776804 C9.61632569,24.5951392 10.0222062,25 10.5412769,25 L12.0297111,25 C12.5262671,25 12.9546623,24.5951392 12.9546623,24.0776804 L12.9546623,22.9750808 L19.0678524,22.9750808 L19.0678524,24.0776804 C19.0678524,24.5951392 19.4737329,25 19.9924951,25 L21.4587231,25 C21.9774854,25 22.406189,24.5951392 22.406189,24.0776804 L22.406189,22.9750808 L23.6016243,22.9750808 C23.9849902,22.9750808 24.2782975,22.6600523 24.2782975,22.3001077 L24.2782975,13.7949546 C24.6844865,13.7724965 25,13.43501 25,13.0301492 L25,11.2301184 C25,10.82495 24.6844865,10.5102292 24.2782975,10.4874635 Z" id="Fill-237" fill="#23B775"></path>
            <rect id="Rectangle-2-Copy" stroke="#23B774" stroke-width="1.5" x="0.75" y="0.75" width="30.5" height="30.5"></rect>
        </g>
    </g>
</svg>

<svg width="32" height="32" xmlns="http://www.w3.org/2000/svg"><g fill="none" fill-rule="evenodd"><path d="M4 4h24v24H4z"/><path d="M22.88 18.183c0 .18-.158.337-.339.337h-1.398a1.24 1.24 0 0 0-1.24-1.26c-.7 0-1.264.563-1.264 1.26h-2.391v-8.325h6.293c.18 0 .339.157.339.36v7.628zm-2.076 3.6a.736.736 0 0 1-.744-.743c0-.405.316-.742.744-.742a.73.73 0 0 1 .722.742.73.73 0 0 1-.722.743zM19 18.52c0-.495.406-.877.902-.877s.88.382.88.877H19zm-3.225 0H9.48c-.203 0-.36-.157-.36-.337v-7.628c0-.203.157-.36.36-.36h6.294v8.325zm-4.557 3.263a.75.75 0 0 1-.745-.743.75.75 0 0 1 .745-.742.75.75 0 0 1 .744.742.75.75 0 0 1-.744.743zm1.714-13.77c0-.09.068-.158.158-.158h5.82c.09 0 .18.068.18.157v1.08c0 .09-.09.18-.18.18h-5.82c-.09 0-.158-.09-.158-.18v-1.08zm11.346 2.474V7.675A.664.664 0 0 0 23.602 7H8.398a.678.678 0 0 0-.676.675v2.812A.745.745 0 0 0 7 11.23v1.8c0 .405.316.742.722.765V22.3c0 .36.316.675.676.675h1.218v1.103c0 .517.406.922.925.922h1.489a.928.928 0 0 0 .925-.922v-1.103h6.113v1.103c0 .517.406.922.924.922h1.467a.933.933 0 0 0 .947-.922v-1.103h1.196a.678.678 0 0 0 .676-.675v-8.505A.765.765 0 0 0 25 13.03v-1.8a.745.745 0 0 0-.722-.743z" fill="#23B775"/><path stroke="#23B774" stroke-width="1.5" d="M.75.75h30.5v30.5H.75z"/></g></svg>
